X: 1176
T: Brose and Butter
B: ralph
B: to learn
M:9/8
L:1/8
R: slip jig
Q: 3/8=100
K:D
V:1 
"Bm" def ~B2 B d2 B | "Bm" def ~B2 B "A" ecA | "Bm" def ~B2 B Bcd | "A" c2 A Aaf ecA :|
"D"  def  faf   faf | "D"  def  faf  "A" ecA | "D"  def  faf  faf | "A" ecA a^gf ecA :|
% abcbook-tune_id 63443f9f1cab566fd111c439
% abcbook-link-0 https://www.youtube.com/watch?v=3WfG90m2Yco
% abcbook-link-title-0 Brose and Butter

% abcbook-boost 0
% abcbook-tablature 
% abcbook-transpose 
% abcbook-lastupdated 1666788288119
% abcbook-soundfonts 
% abcbook-repeats 3
% Rhythm Slip jig
% Titles One title
% Transcriptions Only 1 transcription
% Movement Has some stepwise movement
% Mode major
% Key D
% Time_signature 9/8
% Text Has source text
% Has_accompaniment_chords Has chords

